assets/logos/icons/arrow-up.svg

<svg height="24" viewBox="0 0 24 24" width="24" xmlns="http://www.w3.org/2000/svg"><path d="m10.92 5.69528137-3.25578644 3.25578644-1.41421356-1.41421356 5.6568542-5.65685425 5.6568543 5.65685425-1.4142136 1.41421356-3.2294949-3.22949493v8.17213562h-2zm0 16.19842713v-2h2v2zm0-3v-4h2v4z" fill="#492f5c" fill-rule="evenodd"/></svg>

<svg xmlns="http://www.w3.org/2000/svg" width="24" height="24" viewBox="0 0 24 24">
  <path fill="#492F5C" fill-rule="evenodd" d="M10.92,5.69528137 L7.66421356,8.95106781 L6.25,7.53685425 L11.9068542,1.88 L17.5637085,7.53685425 L16.1494949,8.95106781 L12.92,5.72157288 L12.92,13.8937085 L10.92,13.8937085 L10.92,5.69528137 Z M10.92,21.8937085 L10.92,19.8937085 L12.92,19.8937085 L12.92,21.8937085 L10.92,21.8937085 Z M10.92,18.8937085 L10.92,14.8937085 L12.92,14.8937085 L12.92,18.8937085 L10.92,18.8937085 Z"/>
</svg>
